!!!OTL: 38. Eijenbeijen, bisch bisch bisch!
!!!ODT: 1840
!!!ARE: Europa, Mitteleuropa, Deutschland, Weimar
!!!SCT: K0038
!!!TXL: @@DE
!!!YEM: Copyright 1995, estate of Helmut Schaffrath.
**kern	**text
*clefG2	*
*M2/4	*
*k[f#]	*
*G:	*
=1	=1
{8dd	Ei-
8dd	-jen-
8b	-bei-
8b	-jen,
=2	=2
8g	biſch
8g	biſch
8d	biſch!
8r}	.
=3	=3
{8dd	Mor-
8dd	-gen
8b	eß
8b	mer
=4	=4
8g	Fiſch
8g	Fiſch
8d	Fiſch,
8r}	.
=5	=5
{8g	ü-
8g	-ber-
8a	-mor-
8a	-gen
=6	=6
8b	Schwei-
8b	-ne-
8a	-bra-
8a}	-ten,
=7	=7
{8b	werd'n
8g	wir
8a	dich
8d	ʒu
=8	=8
8g	Ga-
8g	-ſte
8g	la-
8g}	-den.
==	==
!!!AGN: Kinder -, Wiegen - Lied
!!!ONB: ESAC (Essen Associative Code) Database: KINDER
!!!AMT: simple duple
!!!AIN: vox
!!!EED: Helmut Schaffrath
!!!EEV: 1.0
!!!GTL: I. Wiegenlieder.
!!Dem Wickelkinde vorzusingen.
!!Umgegend von Weimar 1840.
!!@@COMMENT:"Text bei Dunger Rr. 13 mit dem Anfange: "Büſch, buſch, büſch! morgen" rc."
!!@@END:
!!!URL-scan: https://archive.org/details/DeutschesKinderliedUndKinderspiel/page/9/mode/1up
!!!ENC: Anna Maria Matuszewska
!!!EEV: 2024/29/08
*-	*-
